X:4
T:Heuliad da\~ns fisel
R:gavotte
D:Penno\`u Skoulm
O:Bretagne
Z:id:hn-gavotte-4
M:4/4
L:1/8
K:Bm
BA dc de B2 | de cA B2 B2 | (3ABc dc de B2 | de cA B2 B2 ||
|: Bf ef ge f2 | (3efg a2 (3gfe fd | B2 dc de B2 | de cA B2 B2 :|

